lib/flags/l/PRK.svg

<svg xmlns="http://www.w3.org/2000/svg" fill="none" viewBox="0 0 32 24"><mask id="PRK_svg__a" width="32" height="24" x="0" y="0" mask-type="alpha" maskUnits="userSpaceOnUse"><path fill="#fff" d="M0 0H32V24H0z"/></mask><g mask="url(#PRK_svg__a)"><path fill="#3D58DB" fill-rule="evenodd" d="M0 0V24H32V0H0Z" clip-rule="evenodd"/><mask id="PRK_svg__b" width="32" height="24" x="0" y="0" mask-type="alpha" maskUnits="userSpaceOnUse"><path fill="#fff" fill-rule="evenodd" d="M0 0V24H32V0H0Z" clip-rule="evenodd"/></mask><g mask="url(#PRK_svg__b)"><path fill="#C51918" stroke="#F7FCFF" stroke-width="2" d="M0 5H-1V6V18V19H0H32H33V18V6V5H32H0Z"/><path fill="#F7FCFF" fill-rule="evenodd" d="M10 17C12.7614 17 15 14.7614 15 12C15 9.23858 12.7614 7 10 7C7.23858 7 5 9.23858 5 12C5 14.7614 7.23858 17 10 17Z" clip-rule="evenodd"/><path fill="#C51918" fill-rule="evenodd" d="M9.99509 13.8698L7.27876 15.76L8.23704 12.5925L5.59998 10.5933L8.90856 10.5258L9.99509 7.40002L11.0816 10.5258L14.3902 10.5933L11.7531 12.5925L12.7114 15.76L9.99509 13.8698Z" clip-rule="evenodd"/></g></g></svg>

<svg xmlns="http://www.w3.org/2000/svg" fill="none" viewBox="0 0 32 24"><g mask="url(#PRK_svg__KP_-_Korea_(North)"><path fill="#3D58DB" fill-rule="evenodd" d="M0 0v24h32V0H0z" clip-rule="evenodd"/><g mask="url(#PRK_svg__KP_-_Korea_(North)"><path fill="#C51918" stroke="#F7FCFF" stroke-width="2" d="M0 5h-1v14h34V5H0z"/><path fill="#F7FCFF" fill-rule="evenodd" d="M10 17a5 5 0 100-10 5 5 0 000 10z" clip-rule="evenodd"/><path fill="#C51918" fill-rule="evenodd" d="M9.995 13.87L7.28 15.76l.958-3.168L5.6 10.593l3.309-.067L9.995 7.4l1.087 3.126 3.308.067-2.637 2 .958 3.167-2.716-1.89z" clip-rule="evenodd"/></g></g></svg>
